theme/essential/pix_core/e/delete.svg

<!DOCTYPE svg PUBLIC "-//W3C//DTD SVG 1.1//EN" "http://www.w3.org/Graphics/SVG/1.1/DTD/svg11.dtd" [
	<!ENTITY ns_flows "http://ns.adobe.com/Flows/1.0/">
]><svg xmlns="http://www.w3.org/2000/svg" width="16" height="16" viewBox="0 -1 16 16" preserveAspectRatio="xMinYMid meet" overflow="visible" enable-background="new 0 -1 16 16"><path d="M14.9 14.2c.2.2.6.3 1.1.4v.4h-5.7v-.4c.7-.1 1.1-.1 1.3-.2.2-.1.3-.3.3-.6 0-.1 0-.3-.1-.6s-.2-.6-.3-.9l-.6-1.3h2.4l.7 1.6c.4.9.7 1.4.9 1.6zm-11.4-.6c0-.2.1-.4.2-.8.1-.2.3-.8.7-1.8h-1c-.7 1.6-1.2 2.6-1.4 2.9-.3.4-.7.6-1.3.6v.5h4.3v-.4c-.5 0-.9-.1-1.1-.2-.3-.2-.4-.4-.4-.8zm2.1-5.6l2-4.9 2 4.9h2.4l-3.6-8h-.4l-3.4 8h1zm10.4 1h-16v1h16v-1z" fill="#999"/></svg>

<?xml version="1.0" encoding="utf-8"?>
<!-- Generator: Adobe Illustrator 15.1.0, SVG Export Plug-In  -->
<!DOCTYPE svg PUBLIC "-//W3C//DTD SVG 1.1//EN" "http://www.w3.org/Graphics/SVG/1.1/DTD/svg11.dtd" [
	<!ENTITY ns_flows "http://ns.adobe.com/Flows/1.0/">
]>
<svg version="1.1"
	 xmlns="http://www.w3.org/2000/svg" xmlns:xlink="http://www.w3.org/1999/xlink" xmlns:a="http://ns.adobe.com/AdobeSVGViewerExtensions/3.0/"
	 x="0px" y="0px" width="16px" height="16px" viewBox="0 -1 16 16" style="overflow:visible;enable-background:new 0 -1 16 16;"
	 xml:space="preserve" preserveAspectRatio="xMinYMid meet">
<defs>
</defs>
<path style="fill:#29a1c4;" d="M14.9,14.2c0.2,0.2,0.6,0.3,1.1,0.4V15h-5.7v-0.4c0.7-0.1,1.1-0.1,1.3-0.2c0.2-0.1,0.3-0.3,0.3-0.6
	c0-0.1,0-0.3-0.1-0.6c-0.1-0.3-0.2-0.6-0.3-0.9L10.9,11h2.4l0.7,1.6C14.4,13.5,14.7,14,14.9,14.2z M3.5,13.6c0-0.2,0.1-0.4,0.2-0.8
	C3.8,12.6,4,12,4.4,11h-1c-0.7,1.6-1.2,2.6-1.4,2.9c-0.3,0.4-0.7,0.6-1.3,0.6V15H5v-0.4c-0.5,0-0.9-0.1-1.1-0.2
	C3.6,14.2,3.5,14,3.5,13.6z M5.6,8l2-4.9l2,4.9H12L8.4,0H8L4.6,8H5.6z M16,9H0v1h16V9z"/>
</svg>
